X:1
T:Down by the sally garden
M:4/4
L:1/8
V:1
Q:1/4=80
K:C
|"C"z6CD|"G"E2DCD2EG|"F"A4G2cG|"Dm"A2GED3C|
|"C"C6CD|"G"E2DCD2EG|"F"A4G2cG|"Dm"A2GED3C|
|"C"C6G2|"Am"c2BGA2Bc|"Em"B3AG2EG|"G"A2GEGAcd|
|"C"c6CD|"G"E2DCD2EG|"F"A4G2cG|"Dm"A2GED3C|
|"C"C6z2|